X:1
T:Tjosanhambo efter Sven i Väse och Sme-Albert i Torskbäcken
R:Hambo
S:Sven Larsson, Väse och Albert Andersson, Torskbäcken, Filipstad
O:Väse och Torskbäcken, Värmland
B:
Z:ABC-transkribering av Per Saxholm
M:3/4
L:1/8
K:D
|A2ABAF|A2dfaf|e2gece|d2fdA2|A2ABAF|A2dfaf|efgece|d2d4:|agf2f2|bag2g2|AceAce|d2fga2|agf2f2|bag2g2|AceAce|d2d4:||

